Newaita-dark/apps/48/workspace-switcher-right-top.svg

<svg height="48" viewBox="0 0 48 48" width="48" xmlns="http://www.w3.org/2000/svg" xmlns:xlink="http://www.w3.org/1999/xlink"><linearGradient id="a" gradientUnits="userSpaceOnUse" x1="22.822488" x2="22.822488" y1="42.0509015" y2="44.03546750005"><stop offset="0" stop-opacity=".27451"/><stop offset="1" stop-opacity="0"/></linearGradient><linearGradient id="b"><stop offset="0" stop-opacity=".313726"/><stop offset=".222222" stop-opacity=".27451"/><stop offset="1" stop-opacity="0"/></linearGradient><radialGradient id="c" cx="450.908936" cy="189.579361" gradientTransform="matrix(.00000026 -.117199 -.210958 -.00000015 80.180533 95.392999)" gradientUnits="userSpaceOnUse" r="21.166656" xlink:href="#b"/><radialGradient id="d" cx="450.908936" cy="189.579361" gradientTransform="matrix(-.00000026 .117199 .210958 .00000015 -32.550981 -11.291218)" gradientUnits="userSpaceOnUse" r="21.166656" xlink:href="#b"/><radialGradient id="e" cx="450.908936" cy="189.579361" gradientTransform="matrix(-.00000026 -.117199 .210958 -.00000015 -32.550981 95.392999)" gradientUnits="userSpaceOnUse" r="21.166656" xlink:href="#b"/><radialGradient id="f" cx="450.908936" cy="189.579361" gradientTransform="matrix(.00000026 .117199 -.210958 .00000015 80.18053 -11.291219)" gradientUnits="userSpaceOnUse" r="21.166656" xlink:href="#b"/><linearGradient id="g"><stop offset="0" stop-color="#b0bec5"/><stop offset="1" stop-color="#cfd8dc"/></linearGradient><linearGradient id="h" gradientTransform="matrix(.10811 0 0 .285939 -7.36381 46.764738)" gradientUnits="userSpaceOnUse" x1="306.752655" x2="305.954529" xlink:href="#g" y1="-16.485477" y2="-141.414581"/><linearGradient id="i" gradientUnits="userSpaceOnUse" x1="23.814786" x2="23.814786" y1="42.0509015" y2="6.3287225"><stop offset="0" stop-color="#5c6bc0"/><stop offset="1" stop-color="#7986cb"/></linearGradient><linearGradient id="j" gradientUnits="userSpaceOnUse" x1="32.74532249995" x2="32.74532249995" xlink:href="#g" y1="28.1589725" y2="-7.5632065"/><path d="m6.945312 42.160156h33.738282v1.875h-33.738282zm0 0" fill="url(#a)"/><path d="m40.683594 42.050781h3.96875v-1.984375h-3.96875zm0 0" fill="url(#c)"/><path d="m6.945312 42.050781h-3.96875v1.984375h3.96875zm0 0" fill="url(#d)"/><path d="m6.945312 42.050781h-3.96875v-1.984375h3.96875zm0 0" fill="url(#e)"/><path d="m40.683594 42.050781h3.96875v1.984375h-3.96875zm0 0" fill="url(#f)"/><path d="m4.960938 6.328125h37.707031c1.097656 0 1.984375.839844 1.984375 1.875v31.972656c0 1.035157-.886719 1.875-1.984375 1.875h-37.707031c-1.09375 0-1.984376-.839843-1.984376-1.875v-31.972656c0-1.035156.890626-1.875 1.984376-1.875zm0 0" fill="url(#h)"/><path d="m5.953125 8.3125h35.722656c.546875 0 .992188.445312.992188.992188v29.769531c0 .546875-.445313.992187-.992188.992187h-35.722656c-.546875 0-.992187-.445312-.992187-.992187v-29.769531c0-.546876.445312-.992188.992187-.992188zm0 0" fill="url(#i)"/><path d="m4.960938 6.328125c-1.097657 0-1.984376.835937-1.984376 1.875v.496094c0-1.039063.886719-1.875 1.984376-1.875h37.707031c1.101562 0 1.984375.835937 1.984375 1.875v-.496094c0-1.039063-.882813-1.875-1.984375-1.875zm0 0" fill="#fff" fill-opacity=".588235"/><path d="m4.960938 42.066406c-1.097657 0-1.984376-.835937-1.984376-1.875v-.496094c0 1.039063.886719 1.875 1.984376 1.875h37.707031c1.101562 0 1.984375-.835937 1.984375-1.875v.496094c0 1.039063-.882813 1.875-1.984375 1.875zm0 0" fill-opacity=".235294"/><path d="m52.911614-147.506445h402.169928c11.707215 0 21.164645 8.957478 21.164645 19.99809v341.009102c0 11.040612-9.45743 19.99809-21.164645 19.99809h-402.169928c-11.665553 0-21.164646-8.957478-21.164646-19.99809v-341.009102c0-11.040612 9.499093-19.99809 21.164646-19.99809zm0 0" fill="none" stroke="#212121" stroke-linecap="round" stroke-width="3" transform="matrix(.093759 0 0 .093759 0 20.158175)"/><path d="m5.953125 8.4375c-.550781 0-.992187.441406-.992187.992188v.371093c0-.546875.441406-.992187.992187-.992187h35.722656c.550781 0 .992188.445312.992188.992187v-.371093c0-.550782-.441407-.992188-.992188-.992188zm0 0" fill-opacity=".235294"/><path d="m5.953125 40.574219c-.550781 0-.992187-.445313-.992187-.992188v-.375c0 .550781.441406.992188.992187.992188h35.722656c.550781 0 .992188-.441407.992188-.992188v.375c0 .546875-.441407.992188-.992188.992188zm0 0" fill="#fff" fill-opacity=".588235"/><path d="m63.493937-126.3418h381.005282c5.832776 0 10.582323 4.749547 10.582323 10.582323v317.511346c0 5.832776-4.749547 10.582323-10.582323 10.582323h-381.005282c-5.832777 0-10.582323-4.749547-10.582323-10.582323v-317.511346c0-5.832776 4.749546-10.582323 10.582323-10.582323zm0 0" fill="none" stroke="#212121" stroke-linecap="round" stroke-linejoin="round" stroke-width="3" transform="matrix(.093759 0 0 .093759 0 20.158175)"/><path d="m5.953125 8.3125c-.550781 0-.992187.441406-.992187.992188v8.054687c11.082031-1.386719 22.640624-2.121094 34.535156-2.121094 1.0625 0 2.117187.003907 3.171875.015625v-5.949218c0-.550782-.441407-.992188-.992188-.992188zm0 0" fill="#fff" fill-opacity=".078431"/><path d="m24.808594 10.296875h14.882812c.546875 0 .992188.445313.992188.992187v11.910157c0 .546875-.445313.992187-.992188.992187h-14.882812c-.550782 0-.992188-.445312-.992188-.992187v-11.910157c0-.546874.441406-.992187.992188-.992187zm0 0" fill="url(#j)"/><path d="m24.808594 10.296875c-.550782 0-.992188.445313-.992188.992187v.496094c0-.546875.441406-.992187.992188-.992187h14.882812c.550782 0 .992188.445312.992188.992187v-.496094c0-.546874-.441406-.992187-.992188-.992187zm0 0" fill="#fff" fill-opacity=".588235"/><path d="m23.816406 23.199219v.742187c0 .550782.441406.992188.992188.992188h14.882812c.550782 0 .992188-.441406.992188-.992188v-.742187c0 .546875-.441406.992187-.992188.992187h-14.882812c-.550782 0-.992188-.445312-.992188-.992187zm0 0" fill-opacity=".235294"/><path d="m84.68306 42.989273h158.734842c5.832776 0 10.582323 4.749547 10.582323 10.582323v127.029536c0 5.832776-4.749547 10.582323-10.582323 10.582323h-158.734842c-5.874439 0-10.582323-4.749547-10.582323-10.582323v-127.029536c0-5.832776 4.707884-10.582323 10.582323-10.582323zm0 0" fill="none" stroke="#212121" stroke-linecap="round" stroke-linejoin="round" stroke-width="2.901905" transform="matrix(.093759 0 0 .093759 16.868799 6.266246)"/></svg>

<?xml version="1.0" encoding="UTF-8"?>
<svg xmlns="http://www.w3.org/2000/svg" xmlns:xlink="http://www.w3.org/1999/xlink" width="48px" height="48px" viewBox="0 0 48 48" version="1.1">
<defs>
<linearGradient id="linear0" gradientUnits="userSpaceOnUse" x1="254" y1="233.5" x2="254" y2="254.666672" gradientTransform="matrix(0.093759,0,0,0.093759,-0.992298,20.158175)">
<stop offset="0" style="stop-color:rgb(0%,0%,0%);stop-opacity:0.27451;"/>
<stop offset="1" style="stop-color:rgb(0%,0%,0%);stop-opacity:0;"/>
</linearGradient>
<radialGradient id="radial0" gradientUnits="userSpaceOnUse" cx="450.908936" cy="189.579361" fx="450.908936" fy="189.579361" r="21.166656" gradientTransform="matrix(0.000000261256,-0.117199,-0.210958,-0.000000152308,80.180533,95.392999)">
<stop offset="0" style="stop-color:rgb(0%,0%,0%);stop-opacity:0.313726;"/>
<stop offset="0.222222" style="stop-color:rgb(0%,0%,0%);stop-opacity:0.27451;"/>
<stop offset="1" style="stop-color:rgb(0%,0%,0%);stop-opacity:0;"/>
</radialGradient>
<radialGradient id="radial1" gradientUnits="userSpaceOnUse" cx="450.908936" cy="189.579361" fx="450.908936" fy="189.579361" r="21.166656" gradientTransform="matrix(-0.000000261256,0.117199,0.210958,0.000000152308,-32.550981,-11.291218)">
<stop offset="0" style="stop-color:rgb(0%,0%,0%);stop-opacity:0.313726;"/>
<stop offset="0.222222" style="stop-color:rgb(0%,0%,0%);stop-opacity:0.27451;"/>
<stop offset="1" style="stop-color:rgb(0%,0%,0%);stop-opacity:0;"/>
</radialGradient>
<radialGradient id="radial2" gradientUnits="userSpaceOnUse" cx="450.908936" cy="189.579361" fx="450.908936" fy="189.579361" r="21.166656" gradientTransform="matrix(-0.000000261256,-0.117199,0.210958,-0.000000152308,-32.550981,95.392999)">
<stop offset="0" style="stop-color:rgb(0%,0%,0%);stop-opacity:0.313726;"/>
<stop offset="0.222222" style="stop-color:rgb(0%,0%,0%);stop-opacity:0.27451;"/>
<stop offset="1" style="stop-color:rgb(0%,0%,0%);stop-opacity:0;"/>
</radialGradient>
<radialGradient id="radial3" gradientUnits="userSpaceOnUse" cx="450.908936" cy="189.579361" fx="450.908936" fy="189.579361" r="21.166656" gradientTransform="matrix(0.000000261256,0.117199,-0.210958,0.000000152308,80.18053,-11.291219)">
<stop offset="0" style="stop-color:rgb(0%,0%,0%);stop-opacity:0.313726;"/>
<stop offset="0.222222" style="stop-color:rgb(0%,0%,0%);stop-opacity:0.27451;"/>
<stop offset="1" style="stop-color:rgb(0%,0%,0%);stop-opacity:0;"/>
</radialGradient>
<linearGradient id="linear1" gradientUnits="userSpaceOnUse" x1="306.752655" y1="-16.485477" x2="305.954529" y2="-141.414581" gradientTransform="matrix(0.10811,0,0,0.285939,-7.36381,46.764738)">
<stop offset="0" style="stop-color:rgb(69.01961%,74.509805%,77.254903%);stop-opacity:1;"/>
<stop offset="1" style="stop-color:rgb(81.176472%,84.705883%,86.274511%);stop-opacity:1;"/>
</linearGradient>
<linearGradient id="linear2" gradientUnits="userSpaceOnUse" x1="254" y1="233.5" x2="254" y2="-147.5" gradientTransform="matrix(0.093759,0,0,0.093759,0,20.158175)">
<stop offset="0" style="stop-color:rgb(36.078432%,41.960785%,75.294119%);stop-opacity:1;"/>
<stop offset="1" style="stop-color:rgb(47.450981%,52.549022%,79.607844%);stop-opacity:1;"/>
</linearGradient>
<linearGradient id="linear3" gradientUnits="userSpaceOnUse" x1="169.333328" y1="233.5" x2="169.333328" y2="-147.5" gradientTransform="matrix(0.093759,0,0,0.093759,16.868799,6.266246)">
<stop offset="0" style="stop-color:rgb(69.01961%,74.509805%,77.254903%);stop-opacity:1;"/>
<stop offset="1" style="stop-color:rgb(81.176472%,84.705883%,86.274511%);stop-opacity:1;"/>
</linearGradient>
</defs>
<g id="surface1">
<path style=" stroke:none;fill-rule:nonzero;fill:url(#linear0);" d="M 6.945312 42.160156 L 40.683594 42.160156 L 40.683594 44.035156 L 6.945312 44.035156 Z M 6.945312 42.160156 "/>
<path style=" stroke:none;fill-rule:nonzero;fill:url(#radial0);" d="M 40.683594 42.050781 L 44.652344 42.050781 L 44.652344 40.066406 L 40.683594 40.066406 Z M 40.683594 42.050781 "/>
<path style=" stroke:none;fill-rule:nonzero;fill:url(#radial1);" d="M 6.945312 42.050781 L 2.976562 42.050781 L 2.976562 44.035156 L 6.945312 44.035156 Z M 6.945312 42.050781 "/>
<path style=" stroke:none;fill-rule:nonzero;fill:url(#radial2);" d="M 6.945312 42.050781 L 2.976562 42.050781 L 2.976562 40.066406 L 6.945312 40.066406 Z M 6.945312 42.050781 "/>
<path style=" stroke:none;fill-rule:nonzero;fill:url(#radial3);" d="M 40.683594 42.050781 L 44.652344 42.050781 L 44.652344 44.035156 L 40.683594 44.035156 Z M 40.683594 42.050781 "/>
<path style=" stroke:none;fill-rule:nonzero;fill:url(#linear1);" d="M 4.960938 6.328125 L 42.667969 6.328125 C 43.765625 6.328125 44.652344 7.167969 44.652344 8.203125 L 44.652344 40.175781 C 44.652344 41.210938 43.765625 42.050781 42.667969 42.050781 L 4.960938 42.050781 C 3.867188 42.050781 2.976562 41.210938 2.976562 40.175781 L 2.976562 8.203125 C 2.976562 7.167969 3.867188 6.328125 4.960938 6.328125 Z M 4.960938 6.328125 "/>
<path style=" stroke:none;fill-rule:nonzero;fill:url(#linear2);" d="M 5.953125 8.3125 L 41.675781 8.3125 C 42.222656 8.3125 42.667969 8.757812 42.667969 9.304688 L 42.667969 39.074219 C 42.667969 39.621094 42.222656 40.066406 41.675781 40.066406 L 5.953125 40.066406 C 5.40625 40.066406 4.960938 39.621094 4.960938 39.074219 L 4.960938 9.304688 C 4.960938 8.757812 5.40625 8.3125 5.953125 8.3125 Z M 5.953125 8.3125 "/>
<path style=" stroke:none;fill-rule:nonzero;fill:rgb(100%,100%,100%);fill-opacity:0.588235;" d="M 4.960938 6.328125 C 3.863281 6.328125 2.976562 7.164062 2.976562 8.203125 L 2.976562 8.699219 C 2.976562 7.660156 3.863281 6.824219 4.960938 6.824219 L 42.667969 6.824219 C 43.769531 6.824219 44.652344 7.660156 44.652344 8.699219 L 44.652344 8.203125 C 44.652344 7.164062 43.769531 6.328125 42.667969 6.328125 Z M 4.960938 6.328125 "/>
<path style=" stroke:none;fill-rule:nonzero;fill:rgb(0%,0%,0%);fill-opacity:0.235294;" d="M 4.960938 42.066406 C 3.863281 42.066406 2.976562 41.230469 2.976562 40.191406 L 2.976562 39.695312 C 2.976562 40.734375 3.863281 41.570312 4.960938 41.570312 L 42.667969 41.570312 C 43.769531 41.570312 44.652344 40.734375 44.652344 39.695312 L 44.652344 40.191406 C 44.652344 41.230469 43.769531 42.066406 42.667969 42.066406 Z M 4.960938 42.066406 "/>
<path style="fill:none;stroke-width:3;stroke-linecap:round;stroke-linejoin:miter;stroke:rgb(12.941177%,12.941177%,12.941177%);stroke-opacity:1;stroke-miterlimit:4;" d="M 52.911614 -147.506445 L 455.081542 -147.506445 C 466.788757 -147.506445 476.246187 -138.548967 476.246187 -127.508355 L 476.246187 213.500747 C 476.246187 224.541359 466.788757 233.498837 455.081542 233.498837 L 52.911614 233.498837 C 41.246061 233.498837 31.746968 224.541359 31.746968 213.500747 L 31.746968 -127.508355 C 31.746968 -138.548967 41.246061 -147.506445 52.911614 -147.506445 Z M 52.911614 -147.506445 " transform="matrix(0.093759,0,0,0.093759,0,20.158175)"/>
<path style=" stroke:none;fill-rule:nonzero;fill:rgb(0%,0%,0%);fill-opacity:0.235294;" d="M 5.953125 8.4375 C 5.402344 8.4375 4.960938 8.878906 4.960938 9.429688 L 4.960938 9.800781 C 4.960938 9.253906 5.402344 8.808594 5.953125 8.808594 L 41.675781 8.808594 C 42.226562 8.808594 42.667969 9.253906 42.667969 9.800781 L 42.667969 9.429688 C 42.667969 8.878906 42.226562 8.4375 41.675781 8.4375 Z M 5.953125 8.4375 "/>
<path style=" stroke:none;fill-rule:nonzero;fill:rgb(100%,100%,100%);fill-opacity:0.588235;" d="M 5.953125 40.574219 C 5.402344 40.574219 4.960938 40.128906 4.960938 39.582031 L 4.960938 39.207031 C 4.960938 39.757812 5.402344 40.199219 5.953125 40.199219 L 41.675781 40.199219 C 42.226562 40.199219 42.667969 39.757812 42.667969 39.207031 L 42.667969 39.582031 C 42.667969 40.128906 42.226562 40.574219 41.675781 40.574219 Z M 5.953125 40.574219 "/>
<path style="fill:none;stroke-width:3;stroke-linecap:round;stroke-linejoin:round;stroke:rgb(12.941177%,12.941177%,12.941177%);stroke-opacity:1;stroke-miterlimit:4;" d="M 63.493937 -126.3418 L 444.499219 -126.3418 C 450.331995 -126.3418 455.081542 -121.592253 455.081542 -115.759477 L 455.081542 201.751869 C 455.081542 207.584645 450.331995 212.334192 444.499219 212.334192 L 63.493937 212.334192 C 57.66116 212.334192 52.911614 207.584645 52.911614 201.751869 L 52.911614 -115.759477 C 52.911614 -121.592253 57.66116 -126.3418 63.493937 -126.3418 Z M 63.493937 -126.3418 " transform="matrix(0.093759,0,0,0.093759,0,20.158175)"/>
<path style=" stroke:none;fill-rule:nonzero;fill:rgb(100%,100%,100%);fill-opacity:0.0784314;" d="M 5.953125 8.3125 C 5.402344 8.3125 4.960938 8.753906 4.960938 9.304688 L 4.960938 17.359375 C 16.042969 15.972656 27.601562 15.238281 39.496094 15.238281 C 40.558594 15.238281 41.613281 15.242188 42.667969 15.253906 L 42.667969 9.304688 C 42.667969 8.753906 42.226562 8.3125 41.675781 8.3125 Z M 5.953125 8.3125 "/>
<path style=" stroke:none;fill-rule:nonzero;fill:url(#linear3);" d="M 24.808594 10.296875 L 39.691406 10.296875 C 40.238281 10.296875 40.683594 10.742188 40.683594 11.289062 L 40.683594 23.199219 C 40.683594 23.746094 40.238281 24.191406 39.691406 24.191406 L 24.808594 24.191406 C 24.257812 24.191406 23.816406 23.746094 23.816406 23.199219 L 23.816406 11.289062 C 23.816406 10.742188 24.257812 10.296875 24.808594 10.296875 Z M 24.808594 10.296875 "/>
<path style=" stroke:none;fill-rule:nonzero;fill:rgb(100%,100%,100%);fill-opacity:0.588235;" d="M 24.808594 10.296875 C 24.257812 10.296875 23.816406 10.742188 23.816406 11.289062 L 23.816406 11.785156 C 23.816406 11.238281 24.257812 10.792969 24.808594 10.792969 L 39.691406 10.792969 C 40.242188 10.792969 40.683594 11.238281 40.683594 11.785156 L 40.683594 11.289062 C 40.683594 10.742188 40.242188 10.296875 39.691406 10.296875 Z M 24.808594 10.296875 "/>
<path style=" stroke:none;fill-rule:nonzero;fill:rgb(0%,0%,0%);fill-opacity:0.235294;" d="M 23.816406 23.199219 L 23.816406 23.941406 C 23.816406 24.492188 24.257812 24.933594 24.808594 24.933594 L 39.691406 24.933594 C 40.242188 24.933594 40.683594 24.492188 40.683594 23.941406 L 40.683594 23.199219 C 40.683594 23.746094 40.242188 24.191406 39.691406 24.191406 L 24.808594 24.191406 C 24.257812 24.191406 23.816406 23.746094 23.816406 23.199219 Z M 23.816406 23.199219 "/>
<path style="fill:none;stroke-width:2.901905;stroke-linecap:round;stroke-linejoin:round;stroke:rgb(12.941177%,12.941177%,12.941177%);stroke-opacity:1;stroke-miterlimit:4;" d="M 84.68306 42.989273 L 243.417902 42.989273 C 249.250678 42.989273 254.000225 47.73882 254.000225 53.571596 L 254.000225 180.601132 C 254.000225 186.433908 249.250678 191.183455 243.417902 191.183455 L 84.68306 191.183455 C 78.808621 191.183455 74.100737 186.433908 74.100737 180.601132 L 74.100737 53.571596 C 74.100737 47.73882 78.808621 42.989273 84.68306 42.989273 Z M 84.68306 42.989273 " transform="matrix(0.093759,0,0,0.093759,16.868799,6.266246)"/>
</g>
</svg>
